X: 1
T: Lass of Carracastle, The
C: Paddy Sweeney
M: 4/4
L: 1/8
K: D
A2 dB A/B/A FA|BdAF GEEG|FDDE F~A3|B/c/d eg fddB|
ABdB A/B/A FA|BdAF GEEG|FDDE F~A3|1 B/c/d eg fddB:|2 B/c/d eg fdde||
fgaf g2 ef|gfed c~A3|fgaf g2 fg|abag fdde|
fgaf g2 ef|gfed c~A3|BGBd cdec|1 dfag fdde:|2 dfag fddB||
